assets/svg/wallet_chat_requestpayment.svg

<svg width="48" height="48" viewBox="0 0 48 48" fill="none" xmlns="http://www.w3.org/2000/svg">
<path d="M40.6843 27.146H33.1896C32.6379 27.146 32.1088 27.3651 31.7187 27.7552C31.3286 28.1453 31.1094 28.6744 31.1094 29.2261V32.1781C31.1094 32.7298 31.3286 33.2589 31.7187 33.649C32.1088 34.0391 32.6379 34.2582 33.1896 34.2582H40.6843L43.485 33.0589V25.9465L40.6843 27.146ZM33.5219 31.5377C33.3567 31.5377 33.1951 31.4887 33.0577 31.3969C32.9203 31.3051 32.8131 31.1746 32.7499 31.0219C32.6866 30.8692 32.6701 30.7012 32.7023 30.5391C32.7345 30.377 32.8141 30.2281 32.931 30.1113C33.0478 29.9944 33.1967 29.9148 33.3588 29.8826C33.5209 29.8503 33.6889 29.8669 33.8416 29.9301C33.9943 29.9933 34.1248 30.1004 34.2166 30.2379C34.3084 30.3753 34.3574 30.5368 34.3574 30.7021C34.3574 30.9237 34.2694 31.1362 34.1127 31.2929C33.956 31.4496 33.7435 31.5377 33.5219 31.5377ZM41.0124 32.3574C41.0124 32.4445 40.9778 32.5279 40.9163 32.5895C40.8547 32.651 40.7713 32.6856 40.6843 32.6856C40.5972 32.6856 40.5138 32.651 40.4522 32.5895C40.3907 32.5279 40.3561 32.4445 40.3561 32.3574V29.0467C40.3561 28.9597 40.3907 28.8763 40.4522 28.8147C40.5138 28.7532 40.5972 28.7186 40.6843 28.7186C40.7713 28.7186 40.8547 28.7532 40.9163 28.8147C40.9778 28.8763 41.0124 28.9597 41.0124 29.0467V32.3574Z" fill="#9A9A9A"/>
<path d="M12.4747 15.5039L29.2944 7.93237L25.5847 2.96456C25.5187 2.87621 25.436 2.80173 25.3412 2.74535C25.2465 2.68898 25.1416 2.65182 25.0324 2.636C24.9233 2.62019 24.8122 2.62602 24.7053 2.65316C24.5984 2.68031 24.498 2.72824 24.4096 2.79422L7.39062 15.5039H12.4747Z" fill="#E1EAF8"/>
<path d="M21.4142 3.61987L18.1822 1.31133C17.6363 0.921375 16.8771 1.05163 16.4923 1.60125L6.63281 15.6863" stroke="#9A9A9A" stroke-width="0.844648" stroke-linecap="round" stroke-linejoin="round"/>
<path d="M37.7066 15.6863L33.9764 7.42654C33.7036 6.82232 32.9943 6.55143 32.3881 6.81989L12.3672 15.6863" stroke="#9A9A9A" stroke-width="0.844648" stroke-linecap="round" stroke-linejoin="round"/>
<path d="M8.74668 12.6697H6.03174C5.52897 12.6697 4.52344 12.9713 4.52344 14.178M4.52344 14.178C4.52344 15.3846 5.52897 15.6863 6.03174 15.6863H38.611C39.4155 15.6863 41.0243 16.1689 41.0243 18.0996C41.0243 20.0302 41.0243 24.3339 41.0243 26.2444M4.52344 14.178V33.4842M18.3998 46.154H38.611C39.4155 45.9528 41.0243 45.249 41.0243 44.0423C41.0243 42.8357 41.0243 38.1097 41.0243 35.8975" stroke="#9A9A9A" stroke-width="0.844648" stroke-linecap="round" stroke-linejoin="round"/>
<path d="M38.6094 12.6692C40.3188 12.5687 43.7376 13.2726 43.7376 16.8925C43.7376 20.5124 43.7376 34.2881 43.7376 40.7235C43.637 41.729 42.9533 43.7401 41.0227 43.7401" stroke="#9A9A9A" stroke-width="0.844648" stroke-linecap="round" stroke-linejoin="round"/>
<path d="M18.8761 24.121V22.7157C18.8757 22.3945 18.7479 22.0865 18.5207 21.8594C18.2936 21.6322 17.9856 21.5045 17.6644 21.5041H9.88134C9.56009 21.5045 9.2521 21.6323 9.02494 21.8594C8.79778 22.0866 8.67 22.3946 8.66962 22.7158V24.121C8.67 24.4423 8.79778 24.7503 9.02494 24.9774C9.2521 25.2046 9.56009 25.3324 9.88134 25.3328H17.6644C17.9856 25.3324 18.2936 25.2046 18.5208 24.9774C18.7479 24.7503 18.8757 24.4423 18.8761 24.121ZM9.32578 24.121V22.7157C9.32598 22.5685 9.38458 22.4273 9.48873 22.3232C9.59288 22.219 9.73408 22.1605 9.88134 22.1603H11.8885C11.5505 22.3639 11.2709 22.6514 11.0768 22.9949C10.8828 23.3385 10.7809 23.7264 10.7811 24.1209C10.7808 24.3233 10.8504 24.5195 10.9779 24.6765H9.88134C9.73408 24.6763 9.59289 24.6177 9.48876 24.5136C9.38463 24.4095 9.32595 24.2683 9.32578 24.121ZM8.22666 19.1614H10.5605C10.6475 19.1614 10.731 19.1268 10.7925 19.0653C10.854 19.0037 10.8886 18.9203 10.8886 18.8333C10.8886 18.7462 10.854 18.6628 10.7925 18.6012C10.731 18.5397 10.6475 18.5051 10.5605 18.5051H8.22656C8.13954 18.5051 8.05608 18.5397 7.99454 18.6012C7.93301 18.6628 7.89844 18.7462 7.89844 18.8333C7.89844 18.9203 7.93301 19.0037 7.99454 19.0653C8.05608 19.1268 8.13963 19.1614 8.22666 19.1614ZM15.8415 19.1614C15.9285 19.1614 16.012 19.1268 16.0735 19.0653C16.1351 19.0037 16.1696 18.9203 16.1696 18.8333C16.1696 18.7462 16.1351 18.6628 16.0735 18.6012C16.012 18.5397 15.9285 18.5051 15.8415 18.5051H13.5076C13.4206 18.5051 13.3371 18.5397 13.2756 18.6012C13.214 18.6628 13.1795 18.7462 13.1795 18.8333C13.1795 18.9203 13.214 19.0037 13.2756 19.0653C13.3371 19.1268 13.4206 19.1614 13.5076 19.1614H15.8415ZM21.1224 18.5051H18.7885C18.7015 18.5051 18.618 18.5397 18.5565 18.6012C18.495 18.6628 18.4604 18.7462 18.4604 18.8333C18.4604 18.9203 18.495 19.0037 18.5565 19.0653C18.618 19.1268 18.7015 19.1614 18.7885 19.1614H21.1224C21.2095 19.1614 21.2929 19.1268 21.3545 19.0653C21.416 19.0037 21.4506 18.9203 21.4506 18.8333C21.4506 18.7462 21.416 18.6628 21.3545 18.6012C21.2929 18.5397 21.2095 18.5051 21.1224 18.5051ZM26.4035 18.5051H24.0695C23.9824 18.5051 23.899 18.5397 23.8374 18.6012C23.7759 18.6628 23.7413 18.7462 23.7413 18.8333C23.7413 18.9203 23.7759 19.0037 23.8374 19.0653C23.899 19.1268 23.9824 19.1614 24.0695 19.1614H26.4035C26.4905 19.1614 26.574 19.1268 26.6355 19.0653C26.697 19.0037 26.7316 18.9203 26.7316 18.8333C26.7316 18.7462 26.697 18.6628 26.6355 18.6012C26.574 18.5397 26.4905 18.5051 26.4035 18.5051ZM31.6844 18.5051H29.3504C29.2634 18.5051 29.1799 18.5397 29.1184 18.6012C29.0569 18.6628 29.0223 18.7462 29.0223 18.8333C29.0223 18.9203 29.0569 19.0037 29.1184 19.0653C29.1799 19.1268 29.2634 19.1614 29.3504 19.1614H31.6843C31.7713 19.1614 31.8548 19.1268 31.9163 19.0653C31.9779 19.0037 32.0124 18.9203 32.0124 18.8333C32.0124 18.7462 31.9779 18.6628 31.9163 18.6012C31.8548 18.5397 31.7714 18.5051 31.6844 18.5051ZM36.9653 18.5051H34.6313C34.5443 18.5051 34.4609 18.5397 34.3993 18.6012C34.3378 18.6628 34.3032 18.7462 34.3032 18.8333C34.3032 18.9203 34.3378 19.0037 34.3993 19.0653C34.4609 19.1268 34.5443 19.1614 34.6313 19.1614H36.9652C37.0523 19.1614 37.1357 19.1268 37.1973 19.0653C37.2588 19.0037 37.2934 18.9203 37.2934 18.8333C37.2934 18.7462 37.2588 18.6628 37.1973 18.6012C37.1357 18.5397 37.0524 18.5051 36.9653 18.5051ZM18.7885 42.8993H21.1224C21.2095 42.8993 21.2929 42.8647 21.3545 42.8031C21.416 42.7416 21.4506 42.6582 21.4506 42.5711C21.4506 42.4841 21.416 42.4006 21.3545 42.3391C21.2929 42.2776 21.2095 42.243 21.1224 42.243H18.7885C18.7015 42.243 18.618 42.2776 18.5565 42.3391C18.495 42.4006 18.4604 42.4841 18.4604 42.5711C18.4604 42.6582 18.495 42.7416 18.5565 42.8031C18.618 42.8647 18.7015 42.8993 18.7885 42.8993ZM26.4035 42.243H24.0695C23.9824 42.243 23.899 42.2776 23.8374 42.3391C23.7759 42.4006 23.7413 42.4841 23.7413 42.5711C23.7413 42.6582 23.7759 42.7416 23.8374 42.8031C23.899 42.8647 23.9824 42.8993 24.0695 42.8993H26.4035C26.4905 42.8993 26.574 42.8647 26.6355 42.8031C26.697 42.7416 26.7316 42.6582 26.7316 42.5711C26.7316 42.4841 26.697 42.4006 26.6355 42.3391C26.574 42.2776 26.4905 42.243 26.4035 42.243ZM31.6844 42.243H29.3504C29.2634 42.243 29.1799 42.2776 29.1184 42.3391C29.0569 42.4006 29.0223 42.4841 29.0223 42.5711C29.0223 42.6582 29.0569 42.7416 29.1184 42.8031C29.1799 42.8647 29.2634 42.8993 29.3504 42.8993H31.6843C31.7713 42.8993 31.8548 42.8647 31.9163 42.8031C31.9779 42.7416 32.0124 42.6582 32.0124 42.5711C32.0124 42.4841 31.9779 42.4006 31.9163 42.3391C31.8548 42.2776 31.7714 42.243 31.6844 42.243ZM36.9653 42.243H34.6313C34.5443 42.243 34.4609 42.2776 34.3993 42.3391C34.3378 42.4006 34.3032 42.4841 34.3032 42.5711C34.3032 42.6582 34.3378 42.7416 34.3993 42.8031C34.4609 42.8647 34.5443 42.8993 34.6313 42.8993H36.9652C37.0523 42.8993 37.1357 42.8647 37.1973 42.8031C37.2588 42.7416 37.2934 42.6582 37.2934 42.5711C37.2934 42.4841 37.2588 42.4006 37.1973 42.3391C37.1357 42.2776 37.0524 42.243 36.9653 42.243Z" fill="#9A9A9A"/>
<circle cx="9.95684" cy="40.6291" r="6.63652" fill="#35D487"/>
<path d="M10.0156 37.5V43.5M13.0156 40.5H7.01562" stroke="white" stroke-linecap="round" stroke-linejoin="round"/>
</svg>

<svg xmlns="http://www.w3.org/2000/svg" width="48" height="48" fill="none"><path fill="#9A9A9A" d="M40.684 27.146H33.19a2.08 2.08 0 0 0-2.08 2.08v2.952a2.08 2.08 0 0 0 2.08 2.08h7.494l2.801-1.2v-7.111zm-7.162 4.392a.836.836 0 1 1 0-1.672.836.836 0 0 1 0 1.672m7.49.82a.328.328 0 0 1-.656 0v-3.311a.328.328 0 0 1 .656 0z"/><path fill="#E1EAF8" d="m12.475 15.504 16.82-7.572-3.71-4.967a.84.84 0 0 0-1.175-.17L7.39 15.503z"/><path stroke="#9A9A9A" stroke-linecap="round" stroke-linejoin="round" stroke-width=".845" d="M21.414 3.62 18.182 1.31a1.207 1.207 0 0 0-1.69.29l-9.86 14.085M37.707 15.686l-3.73-8.26a1.207 1.207 0 0 0-1.589-.606l-20.02 8.866"/><path stroke="#9A9A9A" stroke-linecap="round" stroke-linejoin="round" stroke-width=".845" d="M8.747 12.67H6.032c-.503 0-1.509.301-1.509 1.508m0 0c0 1.207 1.006 1.508 1.509 1.508H38.61c.805 0 2.413.483 2.413 2.414v8.144m-36.5-12.066v19.306M18.4 46.154H38.61c.805-.201 2.413-.905 2.413-2.112v-8.145"/><path stroke="#9A9A9A" stroke-linecap="round" stroke-linejoin="round" stroke-width=".845" d="M38.61 12.67c1.709-.101 5.128.603 5.128 4.222v23.832c-.101 1.005-.785 3.016-2.715 3.016"/><path fill="#9A9A9A" d="M18.876 24.121v-1.405a1.213 1.213 0 0 0-1.212-1.212H9.881a1.213 1.213 0 0 0-1.211 1.212v1.405a1.213 1.213 0 0 0 1.211 1.212h7.783a1.213 1.213 0 0 0 1.212-1.212m-9.55 0v-1.405a.556.556 0 0 1 .555-.556h2.008a2.29 2.29 0 0 0-1.108 1.96c0 .203.07.4.197.556H9.88a.556.556 0 0 1-.555-.555m-1.1-4.96h2.334a.328.328 0 0 0 0-.656H8.228a.328.328 0 0 0 0 .656m7.615 0a.328.328 0 0 0 0-.656h-2.333a.328.328 0 0 0 0 .656zm5.281-.656h-2.334a.328.328 0 0 0 0 .656h2.334a.328.328 0 0 0 0-.656m5.282 0H24.07a.328.328 0 0 0 0 .656h2.334a.328.328 0 0 0 0-.656m5.28 0H29.35a.328.328 0 0 0 0 .656h2.334a.328.328 0 0 0 0-.656m5.281 0h-2.334a.328.328 0 0 0 0 .656h2.334a.328.328 0 0 0 0-.656M18.788 42.9h2.334a.328.328 0 0 0 0-.656h-2.334a.328.328 0 0 0 0 .656m7.616-.656H24.07a.328.328 0 0 0 0 .656h2.334a.328.328 0 0 0 0-.656m5.28 0H29.35a.328.328 0 0 0 0 .656h2.334a.328.328 0 0 0 0-.656m5.281 0h-2.334a.328.328 0 0 0 0 .656h2.334a.328.328 0 0 0 0-.656"/><circle cx="9.957" cy="40.629" r="6.637" fill="#35D487"/><path stroke="#fff" stroke-linecap="round" stroke-linejoin="round" d="M10.016 37.5v6m3-3h-6"/></svg>
